assets/sprite/svg/knauf.svg

<svg width="132" height="65" viewBox="0 0 132 65" fill="none" xmlns="http://www.w3.org/2000/svg">
  <path d="M32.7815 8L27 47.9165H33.1145L34.7187 36.6143L34.7491 36.3153L34.9307 34.9399L34.9609 36.8236L34.9912 37.4216L35.5059 47.9165H41.59L39.9251 33.2954L45.3133 20.5879H39.5015L35.8691 30.3054L35.7177 30.6642L35.3241 31.9798L35.5361 30.5446L35.5966 30.2157L38.7144 8H32.7815ZM66.9561 20.5281L58.5411 47.8567H64.3831L65.715 42.5345H68.1669L67.5615 47.8567H73.343L74.917 20.5281H66.9561ZM47.1295 20.5879L42.9521 47.9165H48.2796L50.2169 35.3884L50.459 33.6243L50.4288 34.9997L50.459 35.3286L51.0342 47.9165H56.846L61.0232 20.5879H56.059L54.2428 31.8901L53.9703 33.6243L54.0006 32.2489L53.9703 31.92L53.5769 20.5879H47.1295ZM85.2694 20.5879L79.1851 20.6178C77.8521 28.8259 77.2079 34.0548 75.916 40.9498C75.8832 41.1447 75.8385 41.3504 75.7949 41.6076C75.7077 42.1374 75.6811 42.1793 75.583 42.9531C75.497 43.6408 75.4667 44.155 75.583 44.8368C75.6943 45.4922 75.7816 45.8665 76.1278 46.4215C76.4269 46.8915 76.6739 47.1379 77.1268 47.4679C77.5954 47.81 77.9307 47.9392 78.4889 48.1557C79.0556 48.3757 80.0387 48.4905 80.9105 48.5443C82.0656 48.6173 83.2352 48.5719 84.2704 48.4247C85.4147 48.2633 86.3312 47.9667 87.0249 47.4978C87.7648 47.0003 88.4125 46.4215 88.7807 45.6441C89.0495 45.0795 89.2686 44.411 89.4163 43.5212C89.7274 41.641 89.4187 43.5295 89.719 41.6375L93.0789 20.6178H87.0856L83.6045 42.1757C83.6045 42.1757 83.5718 42.5823 83.5136 42.8335C83.4495 43.1217 83.4579 43.3262 83.3018 43.581C83.2073 43.7293 83.148 43.8118 82.9991 43.9099C82.8308 44.0187 82.7158 44.0594 82.5148 44.0594C82.2884 44.0617 82.1346 43.9697 81.9699 43.8202C81.7931 43.6587 81.7423 43.5152 81.6974 43.282C81.6539 43.0703 81.6974 42.7438 81.6974 42.7438L81.8185 42.1159L85.2694 20.5879ZM95.5005 20.5879L89.719 57.9329H95.894L99.6171 34.91H103.068L103.764 30.3652H100.223L101.01 24.9234H104.642L105.247 20.5879H95.5005ZM70.4069 23.6676L70.1042 25.7606L70.0134 26.2988L68.7118 37.9598H66.8653L69.8015 26.2091L69.9225 25.7008L70.4069 23.6676Z" fill="#111111" fill-opacity="0.08"/>
</svg>

<svg xmlns="http://www.w3.org/2000/svg" width="132" height="65" viewBox="0 0 132 65">
  <path d="M32.782 8L27 47.916h6.114l1.605-11.302.03-.299.182-1.375.03 1.884.03.598.515 10.495h6.084l-1.665-14.622 5.388-12.707h-5.812l-3.632 9.717-.151.36-.394 1.315.212-1.435.06-.33L38.715 8h-5.932zm34.174 12.528l-8.415 27.329h5.842l1.332-5.322h2.452l-.606 5.322h5.782l1.574-27.329h-7.96zm-19.827.06l-4.177 27.328h5.328l1.937-12.528.242-1.764-.03 1.376.03.329.575 12.587h5.812l4.177-27.328H56.06L54.243 31.89l-.273 1.734.03-1.375-.03-.329-.393-11.332H47.13zm38.14 0l-6.084.03c-1.333 8.208-1.977 13.437-3.269 20.332-.033.195-.078.4-.121.658-.087.53-.114.571-.212 1.345-.086.688-.116 1.202 0 1.884.111.655.199 1.03.545 1.584.299.47.546.717.999 1.047.468.342.804.471 1.362.688.567.22 1.55.334 2.421.388 1.156.073 2.325.028 3.36-.12 1.145-.16 2.061-.457 2.755-.926.74-.498 1.387-1.076 1.756-1.854.268-.564.488-1.233.635-2.123.311-1.88.003.008.303-1.883l3.36-21.02h-5.993l-3.481 21.558s-.033.406-.091.657c-.064.289-.056.493-.212.748-.095.148-.154.23-.303.329a.775.775 0 01-.484.15c-.227.002-.38-.09-.545-.24-.177-.161-.228-.305-.273-.538-.043-.212 0-.538 0-.538l.121-.628 3.451-21.528zm10.231 0L89.72 57.933h6.175l3.723-23.023h3.451l.696-4.545h-3.541l.787-5.442h3.632l.605-4.335h-9.746zm-25.093 3.08l-.303 2.093-.09.538-1.302 11.66h-1.847l2.937-11.75.12-.508.485-2.033z"/>
</svg>
